Dominus_Dark_Funeral/22/categories/applications-development.svg

<svg xmlns="http://www.w3.org/2000/svg" width="24" height="24" version="1"><path d="M23.66 2.96a2.52 2.52 0 0 0-4.3-1.78l-.98.98-.14-.14a.48.48 0 1 0-.68.68l.14.14-.76.76-.14-.14a.48.48 0 1 0-.68.68l.14.14-.76.76-.14-.14a.48.48 0 1 0-.68.68l.14.14-.76.76-.14-.14a.48.48 0 1 0-.68.68l.14.14-.76.77-.14-.15a.48.48 0 1 0-.68.68l.14.14-.28.29-.63-.63a.48.48 0 0 0-.55-.09l-1.2.6-1.9-1.08a1.61 1.61 0 0 0-2.45 1.39c0 2.62.54 5.16 1.6 7.56.11.24 0 .53-.24.63a.49.49 0 0 1-.63-.24c-.71-1.6-1.2-3.29-1.47-5.02a.48.48 0 0 0-.83-.25 3.42 3.42 0 0 0-.4 4.04L.82 20.08a2 2 0 0 0 1.15 2.77l1.85.62.15.02c.13 0 .25-.05.34-.14l3.02-3.02.14.14a.48.48 0 0 0 .68 0l7.2-7.2a.48.48 0 0 0 0-.68l-.13-.14.28-.29.14.15a.48.48 0 0 0 .68 0 .48.48 0 0 0 0-.68l-.14-.14.76-.77.14.14a.48.48 0 0 0 .68 0 .48.48 0 0 0 0-.67l-.14-.14.76-.77.14.14a.48.48 0 0 0 .68 0 .48.48 0 0 0 0-.67l-.14-.15.76-.76.14.14a.48.48 0 0 0 .68 0 .48.48 0 0 0 0-.68l-.14-.14.76-.76.14.14a.48.48 0 0 0 .68 0 .48.48 0 0 0 0-.68l-.14-.14.98-.98a2.5 2.5 0 0 0 .74-1.78zM3.84 22.46l-1.57-.52a1.02 1.02 0 0 1-.6-1.43l1.95-3.9 3.03 3.04zm2.12-12.03c-.03-.45-.07-.9-.07-1.35a.65.65 0 0 1 1-.56l1.35.77zm2.81 2.5a.48.48 0 0 1-.34-.82l1.45-1.44a.48.48 0 1 1 .67.68l-1.44 1.44a.48.48 0 0 1-.34.14zm3.22-.14l-1.44 1.44a.48.48 0 0 1-.67 0 .48.48 0 0 1 0-.68l1.44-1.44a.48.48 0 1 1 .67.68z" fill="#e6e6e6"/></svg>

<?xml version="1.0" encoding="UTF-8" standalone="no"?>
<svg
   xmlns:dc="http://purl.org/dc/elements/1.1/"
   xmlns:cc="http://creativecommons.org/ns#"
   xmlns:rdf="http://www.w3.org/1999/02/22-rdf-syntax-ns#"
   xmlns:svg="http://www.w3.org/2000/svg"
   xmlns="http://www.w3.org/2000/svg"
   xmlns:sodipodi="http://sodipodi.sourceforge.net/DTD/sodipodi-0.dtd"
   xmlns:inkscape="http://www.inkscape.org/namespaces/inkscape"
   width="24"
   height="24"
   version="1"
   id="svg4"
   sodipodi:docname="applications-development.svg"
   inkscape:version="0.92.4 (5da689c313, 2019-01-14)">
  <metadata
     id="metadata10">
    <rdf:RDF>
      <cc:Work
         rdf:about="">
        <dc:format>image/svg+xml</dc:format>
        <dc:type
           rdf:resource="http://purl.org/dc/dcmitype/StillImage" />
        <dc:title></dc:title>
      </cc:Work>
    </rdf:RDF>
  </metadata>
  <defs
     id="defs8" />
  <sodipodi:namedview
     pagecolor="#ffffff"
     bordercolor="#666666"
     borderopacity="1"
     objecttolerance="10"
     gridtolerance="10"
     guidetolerance="10"
     inkscape:pageopacity="0"
     inkscape:pageshadow="2"
     inkscape:window-width="1142"
     inkscape:window-height="480"
     id="namedview6"
     showgrid="false"
     inkscape:zoom="9.8333333"
     inkscape:cx="1.2711864"
     inkscape:cy="12"
     inkscape:window-x="0"
     inkscape:window-y="25"
     inkscape:window-maximized="0"
     inkscape:current-layer="svg4" />
  <path
     d="M 23.66,2.96 A 2.52,2.52 0 0 0 19.36,1.18 L 18.38,2.16 18.24,2.02 A 0.48083261,0.48083261 0 1 0 17.56,2.7 L 17.7,2.84 16.94,3.6 16.8,3.46 A 0.48083261,0.48083261 0 1 0 16.12,4.14 L 16.26,4.28 15.5,5.04 15.36,4.9 A 0.48083261,0.48083261 0 1 0 14.68,5.58 L 14.82,5.72 14.06,6.48 13.92,6.34 A 0.48083261,0.48083261 0 1 0 13.24,7.02 L 13.38,7.16 12.62,7.93 12.48,7.78 A 0.48083261,0.48083261 0 1 0 11.8,8.46 L 11.94,8.6 11.66,8.89 11.03,8.26 A 0.48,0.48 0 0 0 10.48,8.17 L 9.28,8.77 7.38,7.69 A 1.61,1.61 0 0 0 4.93,9.08 c 0,2.62 0.54,5.16 1.6,7.56 0.11,0.24 0,0.53 -0.24,0.63 A 0.49,0.49 0 0 1 5.66,17.03 C 4.95,15.43 4.46,13.74 4.19,12.01 A 0.48,0.48 0 0 0 3.36,11.76 3.42,3.42 0 0 0 2.96,15.8 l -2.14,4.28 a 2,2 0 0 0 1.15,2.77 l 1.85,0.62 0.15,0.02 c 0.13,0 0.25,-0.05 0.34,-0.14 l 3.02,-3.02 0.14,0.14 a 0.48,0.48 0 0 0 0.68,0 l 7.2,-7.2 a 0.48,0.48 0 0 0 0,-0.68 l -0.13,-0.14 0.28,-0.29 0.14,0.15 a 0.48,0.48 0 0 0 0.68,0 0.48,0.48 0 0 0 0,-0.68 l -0.14,-0.14 0.76,-0.77 0.14,0.14 a 0.48,0.48 0 0 0 0.68,0 0.48,0.48 0 0 0 0,-0.67 l -0.14,-0.14 0.76,-0.77 0.14,0.14 a 0.48,0.48 0 0 0 0.68,0 0.48,0.48 0 0 0 0,-0.67 L 19.06,8.6 19.82,7.84 19.96,7.98 a 0.48,0.48 0 0 0 0.68,0 0.48,0.48 0 0 0 0,-0.68 L 20.5,7.16 21.26,6.4 21.4,6.54 a 0.48,0.48 0 0 0 0.68,0 0.48,0.48 0 0 0 0,-0.68 L 21.94,5.72 22.92,4.74 A 2.5,2.5 0 0 0 23.66,2.96 Z M 3.84,22.46 2.27,21.94 a 1.02,1.02 0 0 1 -0.6,-1.43 l 1.95,-3.9 3.03,3.04 z M 5.96,10.43 C 5.93,9.98 5.89,9.53 5.89,9.08 a 0.65,0.65 0 0 1 1,-0.56 l 1.35,0.77 z m 2.81,2.5 A 0.48,0.48 0 0 1 8.43,12.11 l 1.45,-1.44 a 0.48,0.48 0 1 1 0.67,0.68 l -1.44,1.44 a 0.48,0.48 0 0 1 -0.34,0.14 z m 3.22,-0.14 -1.44,1.44 a 0.48,0.48 0 0 1 -0.67,0 0.48,0.48 0 0 1 0,-0.68 l 1.44,-1.44 a 0.48,0.48 0 1 1 0.67,0.68 z"
     id="path2"
     inkscape:connector-curvature="0"
     style="fill:#e6e6e6" />
</svg>
